X:491
T: AM STILLEN HAIN IM MONDENSCHEIN
N: F0934
O: Europa, Mitteleuropa, Deutschland
R: Liebes - Lied
M: 3/4
L: 1/16
K: Ab
E4 | c3cc6E2 | d3dd6
cc | B4-B2=A2B2B2c2d2 | e4-e2=d2e2e2c2A2
a8_g2_f2 | e6c2
e2a2 | a4g2d2f2e2 | e12- | e4z4

